Suru++-Ubuntu/apps/scalable/org-gnome-podcasts.svg

<svg width="256" height="256" version="1.1" viewBox="0 0 67.73 67.73" xmlns="http://www.w3.org/2000/svg" xmlns:xlink="http://www.w3.org/1999/xlink">
 <defs>
  <linearGradient id="linearGradient1108" x1="296" x2="296" y1="-212" y2="236" gradientUnits="userSpaceOnUse">
   <stop style="stop-color:#ffffff" offset="0"/>
   <stop style="stop-color:#ffffff;stop-opacity:.09803922" offset=".125"/>
   <stop style="stop-color:#000000;stop-opacity:.09803922" offset=".925"/>
   <stop style="stop-color:#000000;stop-opacity:.49803922" offset="1"/>
  </linearGradient>
  <clipPath id="clipPath1082-3-36753">
   <path d="M 361.9375,-212 C 507.2348,-212 528,-191.28677 528,-46.125 V 70.125 C 528,215.28618 507.2348,236 361.9375,236 H 214.0625 C 68.7652,236 48,215.28618 48,70.125 V -46.125 C 48,-191.28677 68.7652,-212 214.0625,-212 Z" style="fill:#8c59d9"/>
  </clipPath>
  <clipPath id="clipPath1094">
   <path d="m188.96875 43.999998c72.64865 0 83.03125 10.356615 83.03125 82.937502v58.125c0 72.58059-10.3826 82.9375-83.03125 82.9375h-73.9375c-72.64865 0-83.03125-10.35691-83.03125-82.9375v-58.125c0-72.580887 10.3826-82.937502 83.03125-82.937502z" style="fill:url(#linearGradient1098)"/>
  </clipPath>
  <filter id="filter965" x="-.03" y="-.01" width="1.056" height="1.015" style="color-interpolation-filters:sRGB">
   <feGaussianBlur stdDeviation=".411"/>
  </filter>
  <clipPath id="clipPath1100">
   <path d="M 188.96875,44 C 261.6174,44 272,54.356615 272,126.9375 v 58.125 C 272,257.64309 261.6174,268 188.96875,268 h -73.9375 C 42.3826,268 32,257.64309 32,185.0625 v -58.125 C 32,54.356615 42.3826,44 115.03125,44 Z" style="fill:url(#linearGradient1104)"/>
  </clipPath>
  <filter id="filter984" x="-.23" y="-.06" width="1.451" height="1.122" style="color-interpolation-filters:sRGB">
   <feGaussianBlur stdDeviation="3.288"/>
  </filter>
  <linearGradient id="linearGradient907" x1="93.46" x2="248" y1="69.921" y2="263.092" gradientTransform="matrix(.26458333 0 0 .26458333 -6.993467 221.97263)" gradientUnits="userSpaceOnUse">
   <stop style="stop-color:#7839b7" offset="0"/>
   <stop style="stop-color:#8c59d9" offset="1"/>
  </linearGradient>
  <filter id="filter931" x="-.01" y="-.01" width="1.023" height="1.025" style="color-interpolation-filters:sRGB">
   <feGaussianBlur stdDeviation="1.16"/>
  </filter>
  <filter id="filter925" x="-.02" y="-.03" width="1.046" height="1.05" style="color-interpolation-filters:sRGB">
   <feGaussianBlur stdDeviation="2.32"/>
  </filter>
 </defs>
 <g transform="translate(0,-229.26666)">
  <path transform="matrix(.26458333 0 0 .26458333 0 232.67026)" d="m162.53675 5.568c72.64865 0 83.03125 10.356615 83.03125 82.9375v58.125c0 72.58059-10.3826 82.9375-83.03125 82.9375h-73.9375c-72.64865 0-83.03125-10.35691-83.03125-82.9375v-58.125c0-72.580885 10.3826-82.9375 83.03125-82.9375z" style="filter:url(#filter925);opacity:.2"/>
  <path transform="matrix(.26458333 0 0 .26458333 0 232.67026)" d="m162.53675 4.568c72.64865 0 83.03125 10.356615 83.03125 82.9375v58.125c0 72.58059-10.3826 82.9375-83.03125 82.9375h-73.9375c-72.64865 0-83.03125-10.35691-83.03125-82.9375v-58.125c0-72.580885 10.3826-82.9375 83.03125-82.9375z" style="filter:url(#filter931);opacity:.1"/>
  <path d="m43.004515 233.61429c19.221622 0 21.968685 2.74019 21.968685 21.94388v15.37891c0 19.20361-2.747063 21.94388-21.968685 21.94388h-19.56263c-19.221622 0-21.968685-2.74027-21.968685-21.94388v-15.37891c0-19.20369 2.7470627-21.94388 21.968685-21.94388z" style="fill:url(#linearGradient907)"/>
  <path d="m1.4732 263.24763v7.68945c0 19.20361 2.7470627 21.94388 21.968685 21.94388h19.56263c19.221622 0 21.968685-2.74027 21.968685-21.94388v-7.68945z" style="fill:#ffffff;opacity:.1"/>
  <circle cx="33.243" cy="263.228" r="23.228" style="fill:#ffffff;opacity:.2"/>
  <ellipse cx="33.243" cy="263.228" rx="13.883" ry="13.883" style="fill:#ffffff;opacity:.2"/>
  <path transform="matrix(.26458333 0 0 .26458333 -6.993467 221.97263)" d="m151.98953 138.57854c-9.65989 0-17.49136 7.83112-17.49136 17.49136 0.0105 7.40304 4.68069 13.99752 11.66091 16.4652v95.46492h11.66091v-95.46492c6.98021-2.46768 11.65041-9.06216 11.6609-16.4652 0-9.66024-7.83146-17.49136-17.49136-17.49136z" clip-path="url(#clipPath1100)" style="filter:url(#filter984);opacity:.2"/>
  <path transform="matrix(.26458333 0 0 .26458333 -6.993467 221.97263)" d="m151.98953 138.57854c-9.6599 0-17.49136 7.83112-17.49136 17.49136 0.0105 7.40305 4.68069 13.99752 11.66091 16.4652v95.46492h11.6609v-95.46492c6.98022-2.46768 11.65041-9.06215 11.66091-16.4652 0-9.66024-7.83147-17.49136-17.49136-17.49136z" clip-path="url(#clipPath1094)" style="filter:url(#filter965);opacity:.1"/>
  <path d="m33.22043 258.6382c-2.555846 0-4.627922 2.07198-4.627922 4.62792 0.0028 1.95872 1.238432 3.70351 3.085282 4.35642v25.25843h3.085282v-25.25843c1.846848-0.65291 3.082505-2.3977 3.08528-4.35642 0-2.55594-2.072074-4.62792-4.627922-4.62792z" style="fill:#ffffff"/>
  <path transform="matrix(.13229167 0 0 .13229167 -4.8768 261.66013)" d="M 361.9375,-212 C 507.2348,-212 528,-191.28677 528,-46.125 V 70.125 C 528,215.28618 507.2348,236 361.9375,236 H 214.0625 C 68.7652,236 48,215.28618 48,70.125 V -46.125 C 48,-191.28677 68.7652,-212 214.0625,-212 Z" clip-path="url(#clipPath1082-3-36753)" style="fill:none;opacity:.4;stroke-linecap:round;stroke-linejoin:round;stroke-width:8;stroke:url(#linearGradient1108)"/>
 </g>
</svg>

<svg xmlns="http://www.w3.org/2000/svg" xmlns:xlink="http://www.w3.org/1999/xlink" width="256" height="256" version="1.1" viewBox="0 0 67.73 67.73">
 <defs>
  <linearGradient id="linearGradient1108" x1="296" x2="296" y1="-212" y2="236" gradientUnits="userSpaceOnUse" xlink:href="#linearGradient1013"/>
  <linearGradient id="linearGradient1013">
   <stop style="stop-color:#ffffff" offset="0"/>
   <stop offset=".125" style="stop-color:#ffffff;stop-opacity:0.09803922"/>
   <stop offset=".925" style="stop-color:#000000;stop-opacity:0.09803922"/>
   <stop style="stop-color:#000000;stop-opacity:0.49803922" offset="1"/>
  </linearGradient>
  <clipPath id="clipPath1082-3-36753" clipPathUnits="userSpaceOnUse">
   <path style="fill:#8c59d9" d="M 361.9375,-212 C 507.2348,-212 528,-191.28677 528,-46.125 V 70.125 C 528,215.28618 507.2348,236 361.9375,236 H 214.0625 C 68.7652,236 48,215.28618 48,70.125 V -46.125 C 48,-191.28677 68.7652,-212 214.0625,-212 Z"/>
  </clipPath>
  <clipPath id="clipPath1094" clipPathUnits="userSpaceOnUse">
   <path d="M 188.96875,43.999998 C 261.6174,43.999998 272,54.356613 272,126.9375 v 58.125 C 272,257.64309 261.6174,268 188.96875,268 h -73.9375 C 42.3826,268 32,257.64309 32,185.0625 v -58.125 C 32,54.356613 42.3826,43.999998 115.03125,43.999998 Z" style="fill:url(#linearGradient1098)"/>
  </clipPath>
  <filter id="filter965" width="1.056" height="1.015" x="-.03" y="-.01" style="color-interpolation-filters:sRGB">
   <feGaussianBlur stdDeviation=".411"/>
  </filter>
  <clipPath id="clipPath1100" clipPathUnits="userSpaceOnUse">
   <path d="M 188.96875,44 C 261.6174,44 272,54.356615 272,126.9375 v 58.125 C 272,257.64309 261.6174,268 188.96875,268 h -73.9375 C 42.3826,268 32,257.64309 32,185.0625 v -58.125 C 32,54.356615 42.3826,44 115.03125,44 Z" style="fill:url(#linearGradient1104)"/>
  </clipPath>
  <filter id="filter984" width="1.451" height="1.122" x="-.23" y="-.06" style="color-interpolation-filters:sRGB">
   <feGaussianBlur stdDeviation="3.288"/>
  </filter>
  <linearGradient id="linearGradient907" x1="93.46" x2="248" y1="69.921" y2="263.092" gradientTransform="matrix(0.26458333,0,0,0.26458333,-6.993467,221.97263)" gradientUnits="userSpaceOnUse" xlink:href="#linearGradient905"/>
  <linearGradient id="linearGradient905">
   <stop style="stop-color:#7839b7" offset="0"/>
   <stop style="stop-color:#8c59d9" offset="1"/>
  </linearGradient>
  <filter id="filter931" width="1.023" height="1.025" x="-.01" y="-.01" style="color-interpolation-filters:sRGB">
   <feGaussianBlur stdDeviation="1.16"/>
  </filter>
  <filter id="filter925" width="1.046" height="1.05" x="-.02" y="-.03" style="color-interpolation-filters:sRGB">
   <feGaussianBlur stdDeviation="2.32"/>
  </filter>
 </defs>
 <g transform="translate(0,-229.26666)">
  <path style="opacity:0.2;filter:url(#filter925)" d="m 162.53675,5.568 c 72.64865,0 83.03125,10.356615 83.03125,82.9375 v 58.125 c 0,72.58059 -10.3826,82.9375 -83.03125,82.9375 H 88.59925 C 15.9506,229.568 5.5679999,219.21109 5.5679999,146.6305 V 88.5055 C 5.5679999,15.924615 15.9506,5.568 88.59925,5.568 Z" transform="matrix(0.26458333,0,0,0.26458333,0,232.67026)"/>
  <path d="m 162.53675,4.568 c 72.64865,0 83.03125,10.356615 83.03125,82.9375 v 58.125 c 0,72.58059 -10.3826,82.9375 -83.03125,82.9375 H 88.59925 C 15.9506,228.568 5.5679999,218.21109 5.5679999,145.6305 V 87.5055 C 5.5679999,14.924615 15.9506,4.568 88.59925,4.568 Z" transform="matrix(0.26458333,0,0,0.26458333,0,232.67026)" style="opacity:0.1;filter:url(#filter931)"/>
  <path d="m 43.004515,233.61429 c 19.221622,0 21.968685,2.74019 21.968685,21.94388 v 15.37891 c 0,19.20361 -2.747063,21.94388 -21.968685,21.94388 H 23.441885 C 4.2202627,292.88096 1.4732,290.14069 1.4732,270.93708 v -15.37891 c 0,-19.20369 2.7470627,-21.94388 21.968685,-21.94388 z" style="fill:url(#linearGradient907)"/>
  <path d="m 1.4732,263.24763 v 7.68945 c 0,19.20361 2.7470627,21.94388 21.968685,21.94388 h 19.56263 c 19.221622,0 21.968685,-2.74027 21.968685,-21.94388 v -7.68945 z" style="opacity:0.1;fill:#ffffff"/>
  <circle cx="33.243" cy="263.228" r="23.228" style="opacity:0.2;fill:#ffffff"/>
  <ellipse cx="33.243" cy="263.228" rx="13.883" ry="13.883" style="opacity:0.2;fill:#ffffff"/>
  <path style="opacity:0.2;filter:url(#filter984)" d="m 151.98953,138.57854 c -9.65989,0 -17.49136,7.83112 -17.49136,17.49136 0.0105,7.40304 4.68069,13.99752 11.66091,16.4652 v 95.46492 h 11.66091 V 172.5351 c 6.98021,-2.46768 11.65041,-9.06216 11.6609,-16.4652 0,-9.66024 -7.83146,-17.49136 -17.49136,-17.49136 z" clip-path="url(#clipPath1100)" transform="matrix(0.26458333,0,0,0.26458333,-6.993467,221.97263)"/>
  <path style="opacity:0.1;filter:url(#filter965)" d="m 151.98953,138.57854 c -9.6599,0 -17.49136,7.83112 -17.49136,17.49136 0.0105,7.40305 4.68069,13.99752 11.66091,16.4652 v 95.46492 h 11.6609 V 172.5351 c 6.98022,-2.46768 11.65041,-9.06215 11.66091,-16.4652 0,-9.66024 -7.83147,-17.49136 -17.49136,-17.49136 z" clip-path="url(#clipPath1094)" transform="matrix(0.26458333,0,0,0.26458333,-6.993467,221.97263)"/>
  <path style="fill:#ffffff" d="m 33.22043,258.6382 c -2.555846,0 -4.627922,2.07198 -4.627922,4.62792 0.0028,1.95872 1.238432,3.70351 3.085282,4.35642 v 25.25843 h 3.085282 v -25.25843 c 1.846848,-0.65291 3.082505,-2.3977 3.08528,-4.35642 0,-2.55594 -2.072074,-4.62792 -4.627922,-4.62792 z"/>
  <path style="opacity:0.4;fill:none;stroke:url(#linearGradient1108);stroke-width:8;stroke-linecap:round;stroke-linejoin:round" d="M 361.9375,-212 C 507.2348,-212 528,-191.28677 528,-46.125 V 70.125 C 528,215.28618 507.2348,236 361.9375,236 H 214.0625 C 68.7652,236 48,215.28618 48,70.125 V -46.125 C 48,-191.28677 68.7652,-212 214.0625,-212 Z" clip-path="url(#clipPath1082-3-36753)" transform="matrix(0.13229167,0,0,0.13229167,-4.8768,261.66013)"/>
 </g>
</svg>
